X:1
T:Domine Salvam Fac
T:Oliver Hayes
T:Domine Salvam Fac
C:Oliver Hayes
%%score [ 1 2 3 4 ]
L:1/8
Q:1/4=160
M:4/2
K:Bb
V:1 treble nm="Soprano"
V:2 treble nm="Alto"
V:3 treble-8 nm="Tenor"
V:4 bass nm="Bass"
V:1
 d6 d2 d8 | d4 c4 B4 d4 | f4 d4 B4 B2 c2 | d6 d2 c8 | z16 | z16 | z8 z4 B2 B2 | c4 e4 d4 c2 d2 | %8
w: Do- mi- ne|sal- vam fac re-|gi- nam no- stram E-|li- sa- beth,|||et ex-|au- di nos in _|
 e8 f4 e4 | d8 c4 B4 | B8 B4 =A4 | B16 || %12
w: di- e qua|in- vo- ca-|ve- ri- mus|te.|
[M:3/1][Q:1/4=432][Q:1/4=432][Q:1/4=432][Q:1/4=432] B12 B4 B8 | A12 A4 B8 | G12 G4 F8- | F8 B8 B8 | %16
w: Glo- ri- a|Pa- tri et|Fi- li- o,|_ et Spi-|
 c12 d4 e8 | d8 B16 | B8 B8 c8- | c4 B4 c8 d8 | e12 e4 d8 | B8 f12 e4 | d8 c16 | c16 c8 | %24
w: ri- tu- i|San- cto,|si- cut e-|* rat in prin-|ci- pi- o|et nunc et|sem- per,|et in|
 B12 B4 B8 | B12 c4 d4 e4 | f16 d8 | e24 | d24 |] %29
w: sae- cu- la|sae- * * cu-|lo- rum.|A-|men.|
V:2
 B6 B2 B8 | A4 A4 G4 F4 | F4 F4 F4 F2 F2 | B6 B2 A8 | z16 | z8 z4 F2 F2 | G4 B4 A4 G2 G2 | %7
w: Do- mi- ne|sal- vam fac re-|gi- nam no- stram E-|li- sa- beth,||et ex-|au- di nos, et ex-|
 F4 G4 F4 F4 | E4 F2 G2 A4 G4 | F8 E4 D4 | E8 C4 F4 | F16 ||[M:3/1] F12 F4 F8 | F12 F4 F8 | %14
w: au- di nos in|di- * * e qua|in- vo- ca-|ve- ri- mus|te.|Glo- ri- a|Pa- tri et|
 F8 E8 D8- | D8 F8 F8 | A8 A8 B8 | F8 F16 | F8 F8 _A8- | A4 B4 _A8 A8 | G12 G4 F8 | F8 _A12 B4 | %22
w: Fi- li- o,|_ et Spi-|ri- tu- i|San- cto,|si- cut e-|* rat in prin-|ci- pi- o|et nunc et|
 _A8 G16 | _A16 A8 | G8 G8 F8 | F16 B8 | B16 B8 | G24 | F24 |] %29
w: sem- per,|et in|sae- cu- la|sae- cu-|lo- rum.|A-|men.|
V:3
 f6 f2 f8 | f6 e2 d2 c2 B2 c2 | d4 d4 d4 d2 e2 | f6 f2 f8 | z8 z4 B2 B2 | c4 e4 d4 c2 d2 | %6
w: Do- mi- ne|sal- vam fac _ _ re-|gi- nam no- stram E-|li- sa- beth,|et ex-|au- di nos, et ex-|
 e4 f4 e4 e2 d2 | c4 B4 B4 A4 | B8 c4 B4 | B8 G4 G4 | G8 _A2 B2 c4 | d16 ||[M:3/1] d12 d4 B8 | %13
w: au- di nos, et ex-|au- di nos in|di- e qua|in- vo- ca-|ve- ri- * mus|te.|Glo- ri- a|
 c12 c4 B8 | B12 B4 B8- | B8 d8 d8 | f8 f8 g8 | f8 d16 | d8 d8 e8 | e8 e8 f8 | B8 B8 B8 | %21
w: Pa- tri et|Fi- li- o,|_ et Spi-|ri- tu- i|San- cto,|si- cut e-|rat in prin-|ci- pi- o|
 d8 c12 e4 | f8 e16 | e16 e8 | e8 e8 d8 | d16 d8 | d16 G8 | B8 e4 d4 B4 c4 | d24 |] %29
w: et nunc et|sem- per,|et in|sae- cu- la|sae- cu-|lo- rum.|A- * * * *|men.|
V:4
 B,6 B,2 B,8 | F,4 F,4 G,4 D,4 | B,,6 C,2 D,4 D,2 C,2 | B,,6 B,,2 F,4 F,2 F,2 | G,4 B,4 A,4 G,4 | %5
w: Do- mi- ne|sal- vam fac re-|gi- nam no- stram E-|li- sa- beth, et ex-|au- di nos in|
 F,4 C,4 D,2 E,2 F,4 | E,4 D,4 C,4 B,,2 B,,2 | A,,4 G,,4 B,,4 F,4 | G,8 F,4 G,2 A,2 | B,8 E,4 G,4 | %10
w: di- e, et ex- au-|* di nos, et ex-|au- di nos in|di- e qua _|in- vo- ca-|
 E,8 F,4 F,4 | B,16 ||[M:3/1] B,,12 B,,4 D,8 | F,12 F,4 D,8 | E,12 E,4 B,,8- | B,,8 B,8 B,8 | %16
w: ve- ri- mus|te.|Glo- ri- a|Pa- tri et|Fi- li- o,|_ et Spi-|
 F,8 F,8 E,8 | B,8 B,16 | B,8 B,8 _A,8- | A,4 G,4 _A,8 F,8 | E,12 E,4 B,8 | B,8 F,12 G,4 | %22
w: ri- tu- i|San- cto,|si- cut e-|* rat in prin-|ci- pi- o|et nunc et|
 _A,4 B,4 C16 | %23
w: sem- * per,|
 _A,16 A,8"^A.M.D.G\n \nBirmingham, June 2012\nDiamond Jubilee of Queen Elizabeth II" | %24
w: et in|
 E,8 G,8 B,8 | B,,8 D,8 F,8 | B,8 F,8 B,8 | E,24 | [B,,B,]24 |] %29
w: sae- cu- la|sae- * cu-|lo- * rum.|A-|men.|

